X: 104
T:Hava Neranena
O:Israel
L:1/8
M:4/4
Q:1/4=120
K:Dm
|:"Dm"D D2 F AA A2| D D2 F "Gm"GG G2 | "Dm"F G2 F FEED   |[1 F4 F4  :|[2 D4 D4|
  "F"c d2 c cB BA | "Dm"A2 d2 A4     | "F"c d2 c "Dm"fedc| d4 d4    |\
  "F"c d2 c cB BA | "C"c2 G2 "F"F2 C2| "Dm"F G2 F AGFE   | D4 D4    |
  "F"c>B BA c>B BA| c>B BA "Dm"AG GF | A2 B2 "F"c2 d2    | c4 "Dm"f4|
  "F"c>B BA c>B BA| c>B BA "Dm"AG GF |F G2 F AGFE        | D4 D2 z2 |



